assets/icons/traton/report_inactive.svg

<svg xmlns="http://www.w3.org/2000/svg" width="32" height="32" viewBox="0 0 32 32" fill="none">
<path d="M28 26.5859L26.589 28L4 5.42768L5.41096 4.01362L28 26.5859ZM10.021 14.1904V28H4.03417V14H9.831L10.021 14.1904ZM15.0101 19.1904V26H17.0057V21.1904L19.0013 23.1904V28H13.0144V17.1904L15.0101 19.1904ZM23.8003 28H21.9947V26.1904L23.8003 28ZM6.02978 26H8.0254V16H6.02978V26ZM27.9816 23.8164L25.9859 21.8164V6H23.9903V19.8164L21.9947 17.8164V4H27.9816V23.8164ZM19.0013 14.8164L17.0057 12.8164V11H15.1932L13.1976 9H19.0013V14.8164Z" fill="#001D21" />
</svg>

<svg xmlns="http://www.w3.org/2000/svg" fill="none" viewBox="0 0 32 32"><path fill="#001d21" d="M28 26.6 26.6 28 4 5.4 5.4 4zM10 14.2V28H4V14h5.8zm5 5V26h2v-4.8l2 2V28h-6V17.2zm8.8 8.8H22v-1.8zM6 26h2V16H6zm22-2.2-2-2V6h-2v13.8l-2-2V4h6zm-9-9-2-2V11h-1.8l-2-2H19z"/></svg>
